assets/img/brick_button_off.svg

<?xml version="1.0" encoding="UTF-8"?>
<!-- Created with Inkscape (http://www.inkscape.org/) -->
<svg width="82" height="61" version="1.1" viewBox="0 0 82 61" xml:space="preserve" xmlns="http://www.w3.org/2000/svg"><path d="m0 61v-36l22-22h60v36l-22 22z" fill="#606060"/><path d="m0 25h60l22-22h-60" fill="#333"/><path d="m70.414 6-14 14h-44l14-14z" fill-opacity="0" stroke="#666" stroke-linecap="round" stroke-width="2"/><rect x="2" y="25" width="58" height="34" fill="#999"/><rect x="4" y="27" width="54" height="30" fill="#a0a0a4"/><g fill="#666"><path d="m4 38 11-11h14l-25 25"/><path d="m58 50-7 7h-14l21-21"/><path d="m55 27-30 30h-14l30-30"/></g><g><path x="11" y="31" width="40" height="22" d="m15 31h32a4 4 45 0 1 4 4v14a4 4 135 0 1-4 4h-32a4 4 45 0 1-4-4v-14a4 4 135 0 1 4-4z" fill="#999"/><path x="13" y="33" width="36" height="18" d="m15 33h32a2 2 45 0 1 2 2v14a2 2 135 0 1-2 2h-32a2 2 45 0 1-2-2v-14a2 2 135 0 1 2-2z" fill="#666"/><rect x="15" y="35" width="32" height="14" fill="#f30"/></g><g fill="#ff0"><path d="m17 38v8h8v-8zm2 2h4v4h-4z"/><path d="m27 46h2v-2h6v-2h-6v-2h6v-2h-8z" stroke-linecap="round" stroke-width="2"/><path d="m37 46h2v-2h6v-2h-6v-2h6v-2h-8z" stroke-linecap="round" stroke-width="2"/></g><g><path d="m20 17v-6l10-10h34v6l-10 10z" fill="#e00"/><path d="m20 11h34l10-10h-34" fill="#f30"/><path d="m54 17v-6l10-10v6" fill="#c00"/></g></svg>

<?xml version="1.0" encoding="UTF-8" standalone="no"?>
<!-- Created with Inkscape (http://www.inkscape.org/) -->

<svg
   width="82"
   height="61"
   viewBox="0 0 82 61"
   version="1.1"
   id="svg1"
   inkscape:version="1.3.1 (91b66b0783, 2023-11-16)"
   xml:space="preserve"
   sodipodi:docname="button_off.svg"
   xmlns:inkscape="http://www.inkscape.org/namespaces/inkscape"
   xmlns:sodipodi="http://sodipodi.sourceforge.net/DTD/sodipodi-0.dtd"
   xmlns="http://www.w3.org/2000/svg"
   xmlns:svg="http://www.w3.org/2000/svg"><sodipodi:namedview
     id="namedview1"
     pagecolor="#ffffff"
     bordercolor="#000000"
     borderopacity="0.25"
     inkscape:showpageshadow="2"
     inkscape:pageopacity="0.0"
     inkscape:pagecheckerboard="0"
     inkscape:deskcolor="#d1d1d1"
     inkscape:document-units="px"
     showgrid="false"
     showguides="true"
     inkscape:zoom="8.0000004"
     inkscape:cx="42.937498"
     inkscape:cy="13.312499"
     inkscape:window-width="1920"
     inkscape:window-height="1017"
     inkscape:window-x="1912"
     inkscape:window-y="-8"
     inkscape:window-maximized="1"
     inkscape:current-layer="layer1"><inkscape:grid
       id="grid1"
       units="px"
       originx="0"
       originy="0"
       spacingx="1"
       spacingy="1"
       empcolor="#0099e5"
       empopacity="0.30196078"
       color="#0099e5"
       opacity="0.14901961"
       empspacing="5"
       dotted="false"
       gridanglex="30"
       gridanglez="30"
       visible="false" /></sodipodi:namedview><defs
     id="defs1"><inkscape:path-effect
       effect="fillet_chamfer"
       id="path-effect5"
       is_visible="true"
       lpeversion="1"
       nodesatellites_param="F,0,0,1,0,2,0,1 @ F,0,0,1,0,2,0,1 @ F,0,0,1,0,2,0,1 @ F,0,0,1,0,2,0,1"
       radius="2"
       unit="px"
       method="auto"
       mode="F"
       chamfer_steps="1"
       flexible="false"
       use_knot_distance="true"
       apply_no_radius="true"
       apply_with_radius="true"
       only_selected="false"
       hide_knots="false" /><inkscape:path-effect
       effect="fillet_chamfer"
       id="path-effect4"
       is_visible="true"
       lpeversion="1"
       nodesatellites_param="F,0,0,1,0,4,0,1 @ F,0,0,1,0,4,0,1 @ F,0,0,1,0,4,0,1 @ F,0,0,1,0,4,0,1"
       radius="4"
       unit="px"
       method="auto"
       mode="F"
       chamfer_steps="1"
       flexible="false"
       use_knot_distance="true"
       apply_no_radius="true"
       apply_with_radius="true"
       only_selected="false"
       hide_knots="false" /></defs><g
     inkscape:label="Layer 1"
     inkscape:groupmode="layer"
     id="layer1"><path
       style="display:inline;fill:#606060;fill-opacity:1;stroke:none;stroke-width:2;stroke-linecap:round;stroke-opacity:0"
       d="M 0,61 V 25 L 22,3 H 82 V 39 L 60,61 Z"
       id="path1"
       inkscape:label="body" /><path
       style="fill:#333333;fill-opacity:1;stroke:none;stroke-width:2;stroke-linecap:round;stroke-opacity:0"
       d="M 0,25 H 60 L 82,3 H 22"
       id="path2"
       sodipodi:nodetypes="cccc"
       inkscape:label="top" /><path
       style="display:inline;fill:#000000;fill-opacity:0;stroke:#666666;stroke-width:2;stroke-linecap:round;stroke-opacity:1"
       d="m 70.414214,6 -14,14 h -44 l 14,-14 z"
       id="path9"
       inkscape:label="topring" /><rect
       style="fill:#999999;fill-opacity:1;stroke:none;stroke-width:2;stroke-linecap:round;stroke-opacity:0"
       id="rect2"
       width="58"
       height="34"
       x="2"
       y="25" /><rect
       style="fill:#a0a0a4;fill-opacity:1;stroke:none;stroke-width:2;stroke-linecap:round;stroke-opacity:0"
       id="rect3"
       width="54"
       height="30"
       x="4"
       y="27" /><path
       style="fill:#666666;fill-opacity:1;stroke:none;stroke-width:2;stroke-linecap:round;stroke-opacity:0"
       d="M 4,38 15,27 H 29 L 4,52"
       id="path3"
       sodipodi:nodetypes="cccc"
       inkscape:label="stripe1" /><path
       style="fill:#666666;fill-opacity:1;stroke:none;stroke-width:2;stroke-linecap:round;stroke-opacity:0"
       d="m 58,50 -7,7 H 37 L 58,36"
       id="path3-4"
       sodipodi:nodetypes="cccc"
       inkscape:label="stripe2" /><path
       style="fill:#666666;fill-opacity:1;stroke:none;stroke-width:2;stroke-linecap:round;stroke-opacity:0"
       d="M 55,27 25,57 H 11 L 41,27"
       id="path3-4-8"
       sodipodi:nodetypes="cccc"
       inkscape:label="stripe3" /><path
       style="fill:#999999;fill-opacity:1;stroke:none;stroke-width:2;stroke-linecap:round;stroke-opacity:0"
       id="rect4"
       width="40"
       height="22"
       x="11"
       y="31"
       inkscape:path-effect="#path-effect4"
       sodipodi:type="rect"
       d="m 15,31 32,0 a 4,4 45 0 1 4,4 v 14 a 4,4 135 0 1 -4,4 H 15 A 4,4 45 0 1 11,49 V 35 a 4,4 135 0 1 4,-4 z"
       inkscape:label="border1" /><path
       style="fill:#666666;fill-opacity:1;stroke:none;stroke-width:2;stroke-linecap:round;stroke-opacity:0"
       id="rect5"
       width="36"
       height="18"
       x="13"
       y="33"
       inkscape:path-effect="#path-effect5"
       sodipodi:type="rect"
       d="m 15,33 h 32 a 2,2 45 0 1 2,2 l 0,14 a 2,2 135 0 1 -2,2 H 15 A 2,2 45 0 1 13,49 V 35 a 2,2 135 0 1 2,-2 z"
       inkscape:label="border2" /><rect
       style="fill:#ff3300;fill-opacity:1;stroke:none;stroke-width:2;stroke-linecap:round;stroke-opacity:0"
       id="rect6"
       width="32"
       height="14"
       x="15"
       y="35"
       inkscape:label="screen" /><path
       id="rect7"
       style="fill:#ffff00;fill-opacity:1;stroke:none;stroke-width:2;stroke-linecap:round;stroke-opacity:0"
       d="m 17,38 v 8 h 8 v -8 z m 2,2 h 4 v 4 h -4 z"
       inkscape:label="letter_O" /><path
       style="fill:#ffff00;fill-opacity:1;stroke-width:2;stroke-linecap:round"
       d="m 27,46 h 2 v -2 h 6 v -2 h -6 v -2 h 6 v -2 h -8 z"
       id="path7"
       inkscape:label="letter_F" /><path
       style="fill:#ffff00;fill-opacity:1;stroke-width:2;stroke-linecap:round"
       d="m 37,46 h 2 v -2 h 6 v -2 h -6 v -2 h 6 v -2 h -8 z"
       id="path7-1"
       inkscape:label="letter_F" /><g
       inkscape:groupmode="layer"
       id="layer2"
       inkscape:label="button"
       style="display:inline"><path
         style="fill:#ee0000;fill-opacity:1;stroke:none;stroke-width:2;stroke-linecap:round"
         d="M 20,17 V 11 L 30,1 H 64 V 7 L 54,17 Z"
         id="path4"
         inkscape:label="body" /><path
         style="fill:#ff3300;fill-opacity:1;stroke:none;stroke-width:2;stroke-linecap:round"
         d="M 20,11 H 54 L 64,1 H 30"
         id="path5"
         sodipodi:nodetypes="cccc"
         inkscape:label="top" /><path
         style="fill:#cc0000;fill-opacity:1;stroke:none;stroke-width:2;stroke-linecap:round"
         d="M 54,17 V 11 L 64,1 v 6"
         id="path6"
         sodipodi:nodetypes="cccc"
         inkscape:label="right" /></g></g></svg>
